resources/svg/user-unfollow-fill.svg

<svg fill="currentColor" viewBox="0 0 24 24" xmlns="http://www.w3.org/2000/svg"><path d="M14 14.252V22H4C4 17.5817 7.58172 14 12 14C12.6906 14 13.3608 14.0875 14 14.252ZM12 13C8.685 13 6 10.315 6 7C6 3.685 8.685 1 12 1C15.315 1 18 3.685 18 7C18 10.315 15.315 13 12 13ZM19 16.5858L21.1213 14.4645L22.5355 15.8787L20.4142 18L22.5355 20.1213L21.1213 21.5355L19 19.4142L16.8787 21.5355L15.4645 20.1213L17.5858 18L15.4645 15.8787L16.8787 14.4645L19 16.5858Z"/></svg>

<svg xmlns="http://www.w3.org/2000/svg" viewBox="0 0 24 24" fill="currentColor">
    <g>
        <path fill="none" d="M0 0h24v24H0z"/>
        <path d="M14 14.252V22H4a8 8 0 0 1 10-7.748zM12 13c-3.315 0-6-2.685-6-6s2.685-6 6-6 6 2.685 6 6-2.685 6-6 6zm7 3.586l2.121-2.122 1.415 1.415L20.414 18l2.122 2.121-1.415 1.415L19 19.414l-2.121 2.122-1.415-1.415L17.586 18l-2.122-2.121 1.415-1.415L19 16.586z"/>
    </g>
</svg>
